app/images/people.svg

<svg width="80" height="79" viewBox="0 0 80 79" fill="none" xmlns="http://www.w3.org/2000/svg">
<path d="M58.4333 25.2683C58.2 25.2358 57.9667 25.2358 57.7333 25.2683C52.5667 25.1057 48.4667 20.9756 48.4667 15.9024C48.4667 10.7317 52.7667 6.50407 58.1 6.50407C63.4 6.50407 67.7333 10.6992 67.7333 15.9024C67.7 20.9756 63.6 25.1057 58.4333 25.2683Z" fill="#292D32"/>
<path d="M69.3 47.8049C65.5667 50.2439 60.3334 51.1545 55.5 50.5366C56.7667 47.8699 57.4334 44.9106 57.4667 41.7886C57.4667 38.5366 56.7334 35.4472 55.3334 32.748C60.2667 32.0976 65.5 33.0081 69.2667 35.4472C74.5334 38.8293 74.5334 44.3902 69.3 47.8049Z" fill="#292D32"/>
<path d="M21.4667 25.2683C21.7 25.2358 21.9333 25.2358 22.1667 25.2683C27.3333 25.1057 31.4333 20.9756 31.4333 15.9024C31.4333 10.6992 27.1333 6.50407 21.8 6.50407C16.5 6.50407 12.2 10.6992 12.2 15.9024C12.2 20.9756 16.3 25.1057 21.4667 25.2683Z" fill="#292D32"/>
<path d="M21.8334 41.7886C21.8334 44.9431 22.5334 47.9349 23.8 50.6341C19.1 51.1219 14.2 50.1463 10.6 47.8374C5.33336 44.4228 5.33336 38.8618 10.6 35.4471C14.1667 33.1057 19.2 32.1626 23.9334 32.6829C22.5667 35.4146 21.8334 38.5041 21.8334 41.7886Z" fill="#292D32"/>
<path d="M40.4 51.6098C40.1333 51.5772 39.8333 51.5772 39.5333 51.6098C33.4 51.4146 28.5 46.5041 28.5 40.4553C28.5333 34.2764 33.6333 29.2683 40 29.2683C46.3333 29.2683 51.4667 34.2764 51.4667 40.4553C51.4333 46.5041 46.5667 51.4146 40.4 51.6098Z" fill="#292D32"/>
<path d="M29.5666 58.3415C24.5333 61.626 24.5333 67.0244 29.5666 70.2764C35.3 74.0163 44.7 74.0163 50.4333 70.2764C55.4666 66.9919 55.4666 61.5935 50.4333 58.3415C44.7333 54.6016 35.3333 54.6016 29.5666 58.3415Z" fill="#292D32"/>
</svg>

<svg width="80" height="79" fill="none" xmlns="http://www.w3.org/2000/svg"><path d="M58.433 25.268a2.525 2.525 0 0 0-.7 0c-5.166-.162-9.266-4.292-9.266-9.366 0-5.17 4.3-9.398 9.633-9.398 5.3 0 9.633 4.195 9.633 9.398-.033 5.074-4.133 9.204-9.3 9.366ZM69.3 47.805c-3.733 2.439-8.967 3.35-13.8 2.732 1.267-2.667 1.933-5.626 1.967-8.748 0-3.252-.734-6.342-2.134-9.041 4.934-.65 10.167.26 13.934 2.7 5.266 3.381 5.266 8.942.033 12.357ZM21.467 25.268c.233-.032.466-.032.7 0 5.166-.162 9.266-4.292 9.266-9.366 0-5.203-4.3-9.398-9.633-9.398-5.3 0-9.6 4.195-9.6 9.398 0 5.074 4.1 9.204 9.267 9.366ZM21.833 41.789c0 3.154.7 6.146 1.967 8.845-4.7.488-9.6-.488-13.2-2.797-5.267-3.414-5.267-8.975 0-12.39 3.567-2.341 8.6-3.284 13.333-2.764-1.366 2.732-2.1 5.821-2.1 9.106ZM40.4 51.61a3.85 3.85 0 0 0-.867 0C33.4 51.415 28.5 46.504 28.5 40.455c.033-6.179 5.133-11.187 11.5-11.187 6.333 0 11.467 5.008 11.467 11.187-.034 6.05-4.9 10.96-11.067 11.155ZM29.567 58.342c-5.034 3.284-5.034 8.682 0 11.934 5.733 3.74 15.133 3.74 20.866 0 5.034-3.284 5.034-8.682 0-11.934-5.7-3.74-15.1-3.74-20.866 0Z" fill="#292D32"/></svg>
